src/assets/svg/icons/fa/nuevos/classic/thin/chart-simple-horizontal classic thin.svg

<svg xmlns="http://www.w3.org/2000/svg" viewBox="0 0 448 512"><!--! Font Awesome Pro 6.4.0 by @fontawesome - https://fontawesome.com License - https://fontawesome.com/license (Commercial License) Copyright 2023 Fonticons, Inc. --><path d="M432 240c0-17.7-14.3-32-32-32L48 208c-17.7 0-32 14.3-32 32l0 32c0 17.7 14.3 32 32 32l352 0c17.7 0 32-14.3 32-32l0-32zm16 32c0 26.5-21.5 48-48 48L48 320c-26.5 0-48-21.5-48-48l0-32c0-26.5 21.5-48 48-48l352 0c26.5 0 48 21.5 48 48l0 32zM240 400c0-17.7-14.3-32-32-32L48 368c-17.7 0-32 14.3-32 32l0 32c0 17.7 14.3 32 32 32l160 0c17.7 0 32-14.3 32-32l0-32zm16 32c0 26.5-21.5 48-48 48L48 480c-26.5 0-48-21.5-48-48l0-32c0-26.5 21.5-48 48-48l160 0c26.5 0 48 21.5 48 48l0 32zM368 112l0-32c0-17.7-14.3-32-32-32L48 48C30.3 48 16 62.3 16 80l0 32c0 17.7 14.3 32 32 32l288 0c17.7 0 32-14.3 32-32zm-32 48L48 160c-26.5 0-48-21.5-48-48L0 80C0 53.5 21.5 32 48 32l288 0c26.5 0 48 21.5 48 48l0 32c0 26.5-21.5 48-48 48z"/></svg>

<svg xmlns="http://www.w3.org/2000/svg" viewBox="0 0 448 512"><path d="M448 272C448 298.5 426.5 320 400 320H48C21.49 320 0 298.5 0 272V240C0 213.5 21.49 192 48 192H400C426.5 192 448 213.5 448 240V272zM400 208H48C30.33 208 16 222.3 16 240V272C16 289.7 30.33 304 48 304H400C417.7 304 432 289.7 432 272V240C432 222.3 417.7 208 400 208zM256 432C256 458.5 234.5 480 208 480H48C21.49 480 0 458.5 0 432V400C0 373.5 21.49 352 48 352H208C234.5 352 256 373.5 256 400V432zM208 368H48C30.33 368 16 382.3 16 400V432C16 449.7 30.33 464 48 464H208C225.7 464 240 449.7 240 432V400C240 382.3 225.7 368 208 368zM48 160C21.49 160 0 138.5 0 112V80C0 53.49 21.49 32 48 32H336C362.5 32 384 53.49 384 80V112C384 138.5 362.5 160 336 160H48zM368 112V80C368 62.33 353.7 48 336 48H48C30.33 48 16 62.33 16 80V112C16 129.7 30.33 144 48 144H336C353.7 144 368 129.7 368 112z"/></svg>
